icons/keyboard.svg

<svg width="24" height="24" viewBox="0 0 24 24" fill="none" xmlns="http://www.w3.org/2000/svg">
<path fill-rule="evenodd" clip-rule="evenodd" d="M2 4C2 3.44772 2.44772 3 3 3H21C21.5523 3 22 3.44772 22 4V20C22 20.5523 21.5523 21 21 21H3C2.44772 21 2 20.5523 2 20V4ZM4 5V19H20V5H4ZM7 7C7.55228 7 8 7.44772 8 8V8.01C8 8.56228 7.55228 9.01 7 9.01C6.44772 9.01 6 8.56228 6 8.01V8C6 7.44772 6.44772 7 7 7ZM12 7C12.5523 7 13 7.44772 13 8V8.01C13 8.56228 12.5523 9.01 12 9.01C11.4477 9.01 11 8.56228 11 8.01V8C11 7.44772 11.4477 7 12 7ZM17 7C17.5523 7 18 7.44772 18 8V8.01C18 8.56228 17.5523 9.01 17 9.01C16.4477 9.01 16 8.56228 16 8.01V8C16 7.44772 16.4477 7 17 7ZM7 11C7.55228 11 8 11.4477 8 12V12.01C8 12.5623 7.55228 13.01 7 13.01C6.44772 13.01 6 12.5623 6 12.01V12C6 11.4477 6.44772 11 7 11ZM12 11C12.5523 11 13 11.4477 13 12V12.01C13 12.5623 12.5523 13.01 12 13.01C11.4477 13.01 11 12.5623 11 12.01V12C11 11.4477 11.4477 11 12 11ZM17 11C17.5523 11 18 11.4477 18 12V12.01C18 12.5623 17.5523 13.01 17 13.01C16.4477 13.01 16 12.5623 16 12.01V12C16 11.4477 16.4477 11 17 11ZM6 16C6 15.4477 6.44772 15 7 15H17C17.5523 15 18 15.4477 18 16C18 16.5523 17.5523 17 17 17H7C6.44772 17 6 16.5523 6 16Z" fill="black"/>
</svg>

<svg
  width="24"
  height="24"
  viewBox="0 0 24 24"
  xmlns="http://www.w3.org/2000/svg"
>
  <path
    fill-rule="evenodd"
    clip-rule="evenodd"
    d="M2 4a1 1 0 0 1 1-1h18a1 1 0 0 1 1 1v16a1 1 0 0 1-1 1H3a1 1 0 0 1-1-1V4zm2 1v14h16V5H4zm3 2a1 1 0 0 1 1 1v.01a1 1 0 0 1-2 0V8a1 1 0 0 1 1-1zm5 0a1 1 0 0 1 1 1v.01a1 1 0 1 1-2 0V8a1 1 0 0 1 1-1zm5 0a1 1 0 0 1 1 1v.01a1 1 0 1 1-2 0V8a1 1 0 0 1 1-1zM7 11a1 1 0 0 1 1 1v.01a1 1 0 1 1-2 0V12a1 1 0 0 1 1-1zm5 0a1 1 0 0 1 1 1v.01a1 1 0 1 1-2 0V12a1 1 0 0 1 1-1zm5 0a1 1 0 0 1 1 1v.01a1 1 0 1 1-2 0V12a1 1 0 0 1 1-1zM6 16a1 1 0 0 1 1-1h10a1 1 0 1 1 0 2H7a1 1 0 0 1-1-1z"
  />
</svg>
